X: 21188
T: Katie Scollard's
R: slide
M: 12/8
K: Dmajor
|:B|A2D FED A2F G2B|A2D FED E2F G2B|
A2D FED A2F G2B|ABA G2E D3 D2:|
|:A|d2B A2B =cBA G2A|d2B ABc d3 e3|
d2B A2B =cBA G2B|ABA G2E D3 D2:|

